src/sql/media/icons/backup.svg

<svg width="16" height="16" viewBox="0 0 16 16" fill="none" xmlns="http://www.w3.org/2000/svg">
<path d="M12.1104 13.69H13.1104C13.1104 15.2 9.75039 15.89 6.63039 15.89C3.51039 15.89 0.150391 15.2 0.150391 13.69V2.17999C0.250391 0.549986 4.26039 0.109985 6.63039 0.109985C9.00039 0.109985 13.1104 0.559986 13.1104 2.23999H12.1104C12.0004 1.85999 10.0004 1.10999 6.63039 1.10999C3.26039 1.10999 1.26039 1.85999 1.15039 2.24999V13.69C1.15039 14.05 3.15039 14.89 6.63039 14.89C10.1104 14.89 12.0704 14 12.1104 13.69Z" fill="#0078D4"/>
<path d="M13.4499 12.0701H11.8199V6.37006L9.37988 8.81006V6.81006L12.6399 3.56006L15.8999 6.81006V8.81006L13.4499 6.37006V12.0701Z" fill="#0078D4"/>
</svg>

<svg id="Layer_1" data-name="Layer 1" xmlns="http://www.w3.org/2000/svg" viewBox="0 0 16 16"><defs><style>.cls-1{fill:#231f20;}</style></defs><title>backup_16x16</title><path class="cls-1" d="M12.11,13.69h1c0,1.51-3.36,2.2-6.48,2.2S.15,15.2.15,13.69V2.18C.25.55,4.26.11,6.63.11s6.48.45,6.48,2.13h-1C12,1.86,10,1.11,6.63,1.11s-5.37.75-5.48,1.14V13.69c0,.36,2,1.2,5.48,1.2S12.07,14,12.11,13.69Z"/><path class="cls-1" d="M13.45,12.07H11.82V6.37L9.38,8.81v-2l3.26-3.25,3.26,3.25v2L13.45,6.37Z"/></svg>
